ix/devices_bulk.svg

<svg viewBox="0 0 24 24" fill="none" xmlns="http://www.w3.org/2000/svg" height="1em" width="1em">
  <path opacity="0.4" d="M16 2H6C2.8 2 2 2.8 2 6V11.9C2.03 14.93 2.87 15.7 6 15.7H8.25V19.25H4.95001C4.54001 19.25 4.20001 19.59 4.20001 20C4.20001 20.41 4.54001 20.75 4.95001 20.75H12.25C12.1 20.36 12.03 19.87 12.02 19.25H9.75V15.7H12.02V11.9V10.59C12.02 8.45003 12.73 7.73999 14.87 7.73999H19.15C19.46 7.73999 19.75 7.75998 20 7.78998V6C20 2.8 19.2 2 16 2Z" fill="#292D32"/>
  <path d="M19.9995 7.78998C19.7495 7.75998 19.4595 7.73999 19.1495 7.73999H14.8695C12.7295 7.73999 12.0195 8.45003 12.0195 10.59V19.25C12.0295 19.87 12.0995 20.36 12.2495 20.75C12.5995 21.66 13.3895 22 14.8695 22H19.1495C21.2895 22 21.9995 21.29 21.9995 19.15V10.59C21.9995 8.76003 21.4795 7.97998 19.9995 7.78998ZM17.0096 10.09C17.8796 10.09 18.5795 10.79 18.5795 11.66C18.5795 12.53 17.8796 13.23 17.0096 13.23C16.1396 13.23 15.4395 12.53 15.4395 11.66C15.4395 10.79 16.1396 10.09 17.0096 10.09ZM17.0096 19.15C15.8296 19.15 14.8695 18.19 14.8695 17.01C14.8695 16.52 15.0395 16.06 15.3195 15.7C15.7095 15.2 16.3196 14.87 17.0096 14.87C17.5496 14.87 18.0395 15.07 18.4095 15.39C18.8595 15.79 19.1495 16.37 19.1495 17.01C19.1495 18.19 18.1896 19.15 17.0096 19.15Z" fill="#292D32"/>
  <path opacity="0.4" d="M19.1491 17.0101C19.1491 18.1901 18.1892 19.1501 17.0092 19.1501C15.8292 19.1501 14.8691 18.1901 14.8691 17.0101C14.8691 16.5201 15.0392 16.0601 15.3192 15.7001C15.7092 15.2001 16.3192 14.8701 17.0092 14.8701C17.5492 14.8701 18.0391 15.0701 18.4091 15.3901C18.8591 15.7901 19.1491 16.3701 19.1491 17.0101Z" fill="#292D32"/>
  <path opacity="0.4" d="M17.0095 13.23C17.8765 13.23 18.5794 12.5271 18.5794 11.66C18.5794 10.7929 17.8765 10.0901 17.0095 10.0901C16.1424 10.0901 15.4395 10.7929 15.4395 11.66C15.4395 12.5271 16.1424 13.23 17.0095 13.23Z" fill="#292D32"/>
</svg>

<svg viewBox="0 0 24 24" fill="none" xmlns="http://www.w3.org/2000/svg" height="1em" width="1em">
  <path opacity=".4" d="M16 2H6c-3.2 0-4 .8-4 4v5.9c.03 3.03.87 3.8 4 3.8h2.25v3.55h-3.3c-.41 0-.75.34-.75.75s.34.75.75.75h7.3c-.15-.39-.22-.88-.23-1.5H9.75V15.7h2.27v-5.11c0-2.14.71-2.85 2.85-2.85h4.28c.31 0 .6.02.85.05V6c0-3.2-.8-4-4-4Z" fill="#292D32"/>
  <path d="M20 7.79c-.25-.03-.54-.05-.85-.05h-4.28c-2.14 0-2.85.71-2.85 2.85v8.66c.01.62.08 1.11.23 1.5.35.91 1.14 1.25 2.62 1.25h4.28c2.14 0 2.85-.71 2.85-2.85v-8.56c0-1.83-.52-2.61-2-2.8Zm-2.99 2.3c.87 0 1.57.7 1.57 1.57 0 .87-.7 1.57-1.57 1.57-.87 0-1.57-.7-1.57-1.57 0-.87.7-1.57 1.57-1.57Zm0 9.06c-1.18 0-2.14-.96-2.14-2.14a2.142 2.142 0 0 1 3.54-1.62c.45.4.74.98.74 1.62 0 1.18-.96 2.14-2.14 2.14Z" fill="#292D32"/>
  <path opacity=".4" d="M19.15 17.01c0 1.18-.96 2.14-2.14 2.14-1.18 0-2.14-.96-2.14-2.14a2.142 2.142 0 0 1 3.54-1.62c.45.4.74.98.74 1.62Zm-2.14-3.78a1.57 1.57 0 1 0 0-3.14 1.57 1.57 0 0 0 0 3.14Z" fill="#292D32"/>
</svg>
